flutter/assets/screen.svg

<svg xmlns="http://www.w3.org/2000/svg" width="32" height="32" style="isolation:isolate" viewBox="321.118 40.669 32 32"><path fill="none" d="M321.118 40.669h32v32h-32v-32Z"/><path d="M344.588 47.817h-14.94a3.764 3.764 0 0 0-3.761 3.764v10.176a3.764 3.764 0 0 0 3.761 3.764h14.94a3.765 3.765 0 0 0 3.762-3.764V51.581a3.765 3.765 0 0 0-3.762-3.764Z"/></svg>

<?xml version="1.0" encoding="UTF-8" standalone="no"?>
<svg xmlns="http://www.w3.org/2000/svg" xmlns:xlink="http://www.w3.org/1999/xlink" style="isolation:isolate" viewBox="321.118 40.669 32 32" width="32" height="32"><g><path d=" M 321.118 40.669 L 353.118 40.669 L 353.118 72.669 L 321.118 72.669 L 321.118 40.669 Z " fill="none"/><path d=" M 344.588 47.817 L 329.648 47.817 C 327.572 47.817 325.887 49.504 325.887 51.581 L 325.887 61.757 C 325.887 63.834 327.572 65.521 329.648 65.521 L 344.588 65.521 C 346.664 65.521 348.35 63.834 348.35 61.757 L 348.35 51.581 C 348.35 49.504 346.664 47.817 344.588 47.817 L 344.588 47.817 L 344.588 47.817 Z " fill="rgb(0,0,0)"/></g></svg>
